X: 1144
T: The Drover
B: australian traditional tunes wiki
B: kameruka bush dance
B: ralph
M:2/4
L:1/16
R: Polka
Q: 1/4=100
K:G
V:1 
B2c2 || "G" d2B2 e3d | d2B2 G3F |"C" E2F2 G3E |"G" E2D2 B,3D |G2GD G2B2 | "Em" e2d2 c3B |"A7" A4 A3B | "D7" A4 B2c2 |
"G" d2B2 e3d | d2B2 G3F|"C" E2F2 G3E |"G" E2D2 B,3D |G2GD G2B2 | "A7" e2d2 A3B |"D7" G3F E2F2 | "G" G4 G2F2 ||
"C" E2c2 c3E | ccc2 E3F |"G" E2D2 G3A | B4- B3c |"A7" B2A2 A3E | A4 A2G2 |"D7" F2B2 A2G2 | A4 B2c2 |
"G" d2B2 e3d | d2B2 G3F |"C" E2F2 G3E | "G" E2D2 B,3D |G2GE G2B2 | "A7" e2d2 A2B2 |"D7" G3F E2F2 | "G" G4 ||
% abcbook-tune_id 6342d53af22dcf83a0993770


% abcbook-boost 0
% abcbook-tablature 
% abcbook-transpose 
% abcbook-lastupdated 1665486485353
% abcbook-soundfonts 
% abcbook-repeats 3
% NFF Book 2008

